prod/img/icons/statusMove.svg

<?xml version="1.0" encoding="UTF-8" standalone="no"?>
<svg width="25px" height="25px" viewBox="0 0 25 25" version="1.1" xmlns="http://www.w3.org/2000/svg" xmlns:xlink="http://www.w3.org/1999/xlink">
    <!-- Generator: Sketch 3.6.1 (26313) - http://www.bohemiancoding.com/sketch -->
    <title>Status</title>
    <desc>Created with Sketch.</desc>
    <defs></defs>
    <g id="Page-1" stroke="none" stroke-width="1" fill="none" fill-rule="evenodd">
        <g id="Status" fill="#FFFFFF">
            <path d="M24.9995455,12.4668429 C24.9995455,5.63957704 19.4615152,0.0797583082 12.6292424,0.0128398792 C12.5890152,0.00445619335 12.5473485,0 12.5046212,0 C12.3800758,0 12.2587121,0.0119335347 12.1359091,0.0188821752 C5.41636364,0.214652568 0.00962121212,5.72122356 0.00962121212,12.4668429 C0.00962121212,19.2940332 5.54780303,24.853852 12.3800758,24.9208459 C12.420303,24.9290785 12.4619697,24.9336858 12.5046212,24.9336858 C12.6292424,24.9336858 12.7506818,24.9219033 12.8734848,24.9148036 C19.5929545,24.7188066 24.9995455,19.2124622 24.9995455,12.4668429 L24.9995455,12.4668429 Z M1.23621212,12.4668429 C1.23621212,8.08074018 3.77189394,4.27635952 7.45719697,2.42681269 C6.54068182,3.56125378 5.98916667,5.00732628 5.98916667,6.58240181 C5.98916667,10.1642749 8.9119697,13.0780967 12.5046212,13.0780967 C15.4211364,13.0780967 17.7937121,15.4436556 17.7937121,18.3510574 C17.7937121,21.1808912 15.6167424,23.4996979 12.8713636,23.6919184 C12.7492424,23.6957704 12.6276515,23.7012085 12.5045455,23.7012085 C6.29113636,23.701284 1.23621212,18.6614048 1.23621212,12.4668429 L1.23621212,12.4668429 Z"></path>
        </g>
    </g>
</svg>

<svg width="25" height="25" viewBox="0 0 25 25" xmlns="http://www.w3.org/2000/svg"><title>Status</title><path d="M25 12.467C25 5.64 19.462.08 12.63.013A.61.61 0 0 0 12.504 0c-.125 0-.246.012-.37.019C5.417.215.01 5.72.01 12.467c0 6.827 5.538 12.387 12.37 12.454a.62.62 0 0 0 .125.013c.124 0 .246-.012.368-.02C19.593 24.72 25 19.213 25 12.468zm-23.764 0c0-4.386 2.536-8.19 6.221-10.04A6.592 6.592 0 0 0 5.99 6.582c0 3.582 2.923 6.496 6.516 6.496 2.916 0 5.289 2.366 5.289 5.273 0 2.83-2.177 5.149-4.923 5.34-.122.005-.243.01-.366.01-6.214 0-11.269-5.04-11.269-11.234z" fill="#FFF" fill-rule="evenodd"/></svg>
